X: 21542
T: The Farmer's Wish
Q: "Slow"
%R: air, waltz
B: James Oswald "The Caledonian Pocket Companion" v.2 p.154 #2
Z: 2018 John Chambers <jc:trillian.mit.edu>
M: 3/4
L: 1/16
K: D
|:\
f3e d4 A4 | (G4 F4) E4 | (D4 g4) f4 | Te3d e4 z4 |\
(f2d2)(e2c2)(d2B2) | (^G4 B4) d4 | (cB)A2 c4 TB4 | A12 :|
|:\
(A4 e4) g4 | (A4 d4) f4 | (A4 g4) f4 | (f4 e4) A4 |\
(G4 F4) =c4 | (B4 ^c4) d4 | g2fe d4 Tc4 | d12 :|
|:\
(f2a2) (d2f2) (A2d2) | G4 (3F2B2A2 (3G2F2E2 | D4 (3F2A2d2 (3B2g2f2 | Te3d e4 z4 |\
(3f2d2f2 (3e2c2e2 (3d2B2A2 | ^G4 (ABcd ef^ga) | {g}f2ed c4 TB4 | A12 :|
|:\
A4 (3a2f2a2 g4 | A4 (3g2e2g2 f4 | A4 (3(B2c2d2) (3(e2f2g2) | Tf4 e4 A4 |\
(G4 F4) (DFA=c) | (B3^c/d/) (c3d/e/) (d3e/f/) | {a}g2(fe) {de}Te6 (de) | d12 :|


